src/actions/24/view-media-title.svg

<svg xmlns="http://www.w3.org/2000/svg" viewBox="0 0 24 24">
    <path d="M6 4v2H4v3h2v6H4v3h2v2h14V4H6zm1 1h12v2H7V5zm0 3h12v11H7V8z" style="fill:currentColor;fill-opacity:1;stroke:none;color:#050505;opacity:.7"/>
</svg>

<svg xmlns="http://www.w3.org/2000/svg" viewBox="0 0 24 24">
  <defs id="defs3051">
    <style type="text/css" id="current-color-scheme">
      .ColorScheme-Text {
        color:#363636;
      }
      </style>
  </defs>
 <path style="fill:currentColor;fill-opacity:1;stroke:none" 
     d="M 6 4 L 6 5 L 6 6 L 4 6 L 4 9 L 6 9 L 6 15 L 4 15 L 4 18 L 6 18 L 6 20 L 7 20 L 20 20 L 20 19 L 20 5 L 20 4 L 6 4 z M 7 5 L 19 5 L 19 7 L 7 7 L 7 6 L 7 5 z M 7 8 L 19 8 L 19 12 L 19 19 L 7 19 L 7 8 z "
     class="ColorScheme-Text"
     />
</svg>
